svg/deviant-art.svg

<svg height="16" viewBox="0 0 16 16" width="16" xmlns="http://www.w3.org/2000/svg"><path d="m2.611 9.528s-.751-1.591 1.437-2.955l1.162 2.283-2.6.672zm3.549-3.853c3.849-1.06 7.063 1.108 7.063 1.108l-2.65.685-.763-1.358a7.237 7.237 0 0 0 -2.406-.027l1.804 3.513 7.792-2.152s-2.826-4.252-11.255-2.879c-.05.009-.093.02-.141.028l-.82-1.593-2.426.264.99 1.938c-5.113 2.025-2.848 6.798-2.848 6.798l7.804-2.152-2.145-4.173z" fill="#111" fill-rule="evenodd"/></svg>

<svg aria-hidden="true" role="img" class="icon" xmlns="http://www.w3.org/2000/svg" width="16" height="16" viewBox="0 0 16 16"><path fill="#111" fill-rule="evenodd" d="M2.611 9.528S1.86 7.937 4.048 6.573L5.21 8.856l-2.6.672zM6.16 5.675c3.849-1.06 7.063 1.108 7.063 1.108l-2.65.685L9.81 6.11a7.237 7.237 0 00-2.406-.027l1.804 3.513L17 7.444S14.174 3.192 5.745 4.565c-.05.009-.093.02-.141.028L4.784 3l-2.426.264.99 1.938C-1.765 7.227.5 12 .5 12l7.804-2.152-2.145-4.173z"/></svg>
